src/next/cmd/ko/lc_text_marquee.svg

<svg height="24" width="24" xmlns="http://www.w3.org/2000/svg" xmlns:xlink="http://www.w3.org/1999/xlink"><linearGradient id="a" gradientUnits="userSpaceOnUse" x1="52.3629" x2="46.5448" y1="98.9077" y2="-23.2724"><stop offset="0" stop-color="#1c1c1c"/><stop offset=".5" stop-color="#888"/><stop offset="1"/></linearGradient><linearGradient id="b"><stop offset="0" stop-color="#0968ef"/><stop offset="1" stop-color="#aecffc"/></linearGradient><linearGradient id="c" gradientTransform="matrix(-1.6493491 0 0 -2.8863614 235.42268 174.0911)" gradientUnits="userSpaceOnUse" x1="130.70859" x2="103.74631" xlink:href="#b" y1="20.118034" y2="20.118034"/><linearGradient id="d" gradientTransform="matrix(1.6493491 0 0 -2.8863614 -107.42448 174.0911)" gradientUnits="userSpaceOnUse" x1="130.70859" x2="103.74631" xlink:href="#b" y1="20.118034" y2="20.118034"/><g transform="matrix(.171875 0 0 .171875 1.001798 1.003868)"><path d="m54.892799 3.2812959v-2.79470843z" fill="#fff" fill-opacity=".756881"/><g fill-rule="evenodd"><path d="m87.5629 0v104.724h10.4724v-41.8896h15.7086v-10.4724h-15.7086v-52.362zm-73.3068 10.4724v10.4724h47.1258c-.245316 10.508724-1.59912 30.040032-6.221281 40.807105-5.813632 13.542546-20.131812 27.274115-40.904519 27.263495v10.4724c26.353093.01361 42.566143-15.396873 50.009799-32.736476 7.443662-17.339609 7.937446-36.559285 7.588401-48.649618v-7.629306z" fill="url(#a)" stroke-width="5.2362"/><path d="m63.9991 116.40926-42.9385-.0454 4.948046-8.65908-23.090892 11.54544 23.090892 11.54545-4.948046-8.65909 42.9385.0454z" fill="url(#c)"/><path d="m63.9991 116.40926 42.9385-.0454-4.94804-8.65908 23.09089 11.54544-23.09089 11.54545 4.94804-8.65909-42.9385.0454z" fill="url(#d)"/></g></g></svg>

<?xml version="1.0" encoding="UTF-8" standalone="no"?>
<svg
   xmlns:dc="http://purl.org/dc/elements/1.1/"
   xmlns:cc="http://creativecommons.org/ns#"
   xmlns:rdf="http://www.w3.org/1999/02/22-rdf-syntax-ns#"
   xmlns:svg="http://www.w3.org/2000/svg"
   xmlns="http://www.w3.org/2000/svg"
   xmlns:xlink="http://www.w3.org/1999/xlink"
   xmlns:sodipodi="http://sodipodi.sourceforge.net/DTD/sodipodi-0.dtd"
   xmlns:inkscape="http://www.inkscape.org/namespaces/inkscape"
   height="24"
   width="24"
   version="1.1"
   id="svg26"
   sodipodi:docname="lc_text_marquee.svg"
   inkscape:version="0.92.4 (unknown)"
   inkscape:export-filename="/home/rizmut/Dokumen/Rizmut/Github/libreoffice-style-karasa-jaga/build/next/cmd/ko/lc_text_marquee.png"
   inkscape:export-xdpi="96"
   inkscape:export-ydpi="96">
  <metadata
     id="metadata32">
    <rdf:RDF>
      <cc:Work
         rdf:about="">
        <dc:format>image/svg+xml</dc:format>
        <dc:type
           rdf:resource="http://purl.org/dc/dcmitype/StillImage" />
        <dc:title></dc:title>
      </cc:Work>
    </rdf:RDF>
  </metadata>
  <defs
     id="defs30" />
  <sodipodi:namedview
     pagecolor="#ffffff"
     bordercolor="#666666"
     borderopacity="1"
     objecttolerance="10"
     gridtolerance="10"
     guidetolerance="10"
     inkscape:pageopacity="0"
     inkscape:pageshadow="2"
     inkscape:window-width="1366"
     inkscape:window-height="714"
     id="namedview28"
     showgrid="true"
     inkscape:zoom="7.375"
     inkscape:cx="-4.7059712"
     inkscape:cy="12.56304"
     inkscape:window-x="0"
     inkscape:window-y="28"
     inkscape:window-maximized="1"
     inkscape:current-layer="g24">
    <inkscape:grid
       type="xygrid"
       id="grid34" />
  </sodipodi:namedview>
  <linearGradient
     id="a"
     gradientUnits="userSpaceOnUse"
     x1="52.3629"
     x2="46.5448"
     y1="98.9077"
     y2="-23.2724">
    <stop
       offset="0"
       stop-color="#1c1c1c"
       id="stop2" />
    <stop
       offset=".5"
       stop-color="#888"
       id="stop4" />
    <stop
       offset="1"
       id="stop6" />
  </linearGradient>
  <linearGradient
     id="b">
    <stop
       offset="0"
       stop-color="#0968ef"
       id="stop9" />
    <stop
       offset="1"
       stop-color="#aecffc"
       id="stop11" />
  </linearGradient>
  <linearGradient
     id="c"
     gradientTransform="matrix(-1.6493491,0,0,-2.8863614,235.42268,174.0911)"
     gradientUnits="userSpaceOnUse"
     x1="130.70859"
     x2="103.74631"
     xlink:href="#b"
     y1="20.118034"
     y2="20.118034" />
  <linearGradient
     id="d"
     gradientTransform="matrix(1.6493491,0,0,-2.8863614,-107.42448,174.0911)"
     gradientUnits="userSpaceOnUse"
     x1="130.70859"
     x2="103.74631"
     xlink:href="#b"
     y1="20.118034"
     y2="20.118034" />
  <g
     id="g44"
     transform="matrix(0.171875,0,0,0.171875,1.0017977,1.0038681)">
    <path
       id="path16"
       d="M 54.892799,3.2812959 V 0.48658747 Z"
       inkscape:connector-curvature="0"
       style="fill:#ffffff;fill-opacity:0.756881" />
    <g
       id="g24"
       style="fill-rule:evenodd">
      <path
         id="path18"
         d="M 87.5629,0 V 104.724 H 98.0353 V 62.8344 h 15.7086 V 52.362 H 98.0353 V 0 Z M 14.2561,10.4724 V 20.9448 H 61.3819 C 61.136584,31.453524 59.78278,50.984832 55.160619,61.751905 49.346987,75.294451 35.028807,89.02602 14.2561,89.0154 V 99.4878 C 40.609193,99.50141 56.822243,84.090927 64.265899,66.751324 71.709561,49.411715 72.203345,30.192039 71.8543,18.101706 V 10.4724 Z"
         style="fill:url(#a);stroke-width:5.23619986"
         inkscape:connector-curvature="0" />
      <path
         id="path20"
         d="m 63.9991,116.40926 -42.9385,-0.0454 4.948046,-8.65908 -23.090892,11.54544 23.090892,11.54545 -4.948046,-8.65909 42.9385,0.0454 z"
         style="fill:url(#c)"
         inkscape:connector-curvature="0" />
      <path
         id="path22"
         d="m 63.9991,116.40926 42.9385,-0.0454 -4.94804,-8.65908 23.09089,11.54544 -23.09089,11.54545 4.94804,-8.65909 -42.9385,0.0454 z"
         style="fill:url(#d)"
         inkscape:connector-curvature="0" />
    </g>
  </g>
</svg>
